!!!COM: Joplin, Scott
!!!CDT: 1868/11/24-1917/04/01
!!!OTL: The Chrysanthemum
!!!ONB: An Afro-American Intermezzo
!!!AGN: Intermezzo
!!!ODT: 1904
!!!OMD: Slow March Tempo.
**kern	**kern	**dynam
*staff2	*staff1	*staff1/2
*Ipiano	*Ipiano	*Ipiano
*>[I,A,A1,A,A2,B,B1,B,B2,C,D,D1,D,D2,E,E1,E,E2,F]	*>[I,A,A1,A,A2,B,B1,B,B2,C,D,D1,D,D2,E,E1,E,E2,F]	*>[I,A,A1,A,A2,B,B1,B,B2,C,D,D1,D,D2,E,E1,E,E2,F]
*>norep[I,A,A2,B,B2,C,D,D2,E,E2,F]	*>norep[I,A,A2,B,B2,C,D,D2,E,E2,F]	*>norep[I,A,A2,B,B2,C,D,D2,E,E2,F]
*>I	*>I	*>I
=1-	=1-	=1-
*clefF4	*clefG2	*clefG2
*k[b-e-]	*k[b-e-]	*k[b-e-]
*B-:	*B-:	*B-:
*M2/4	*M2/4	*M2/4
*MM90	*MM90	*MM90
*ped	*	*
!LO:TX:a:i:t=l.h.	!LO:TX:a:i:t=r.h.	!
(16f>LL	(16ffLL	.
16en>	16een	.
16e->	16ee-	.
16d>JJ	16ddJJ	.
*Xped	*	*
4c>)	4cc)	.
=2	=2	=2
*ped	*	*
(16E-LL<	(16e-LL	.
16D	16d	.
16C	16c	.
16C-JJ	16c-JJ	.
*Xped	*	*
4BB-)	4B-)	.
=3	=3	=3
*ped	*	*
8E-L EE-	(16gLL	.
.	16f#	.
8e-J c G	16g	.
.	16ee-JJ)	.
8FL FF	16ddLL>	.
.	16fnJ	.
*Xped	*	*
8e-J A F	8ccJ	.
=4	=4	=4
*ped	*	*
8BB-L	8b-	.
8dJ B- F	8r	.
8FFL	8r	.
*Xped	*	*
8dJ B- F	8dd	.
!!LO:LB:g=original
=5!|:	=5!|:	=5!|:
*>A	*>A	*>A
*ped	*	*
8cL C	16ee-LL	mf
.	16ff	.
8e-J A F	16gg	.
.	16aJJ	.
8FFL	16ccLL	.
.	16dd	.
*Xped	*	*
8e-J A F	16ee-	.
.	16gJJ	.
=6	=6	=6
*ped	*	*
8BB-L	16b-LL	.
.	16cc	.
8dJ B- F	16dd	.
.	[16fJJ	.
8FFL	16fLL]	.
.	16b-J	.
*Xped	*	*
8dJ B- F	8fJ	.
=7	=7	=7
*ped	*	*
8AAL	(16fLL	.
.	16f#	.
8e-J A F	16g)	.
.	16ee-JJ	.
8FFL	(16gLL	.
.	16g#	.
*Xped	*	*
8e-J c F	16a)	.
.	16ee-JJ	.
=8	=8	=8
*ped	*	*
8BB-L	16ddLL	.
.	16b-	.
8dJ B- F	16dd	.
.	[16ffJJ	.
8dL D	8ffL]	.
*Xped	*	*
8BnJ BBn	8ddJ	.
!!LO:LB:g=original
=9	=9	=9
*ped	*	*
8cL C	16ee-LL	.
.	16ff	.
8e-J A F	16gg	.
.	16aJJ	.
8FFL	16ccLL	.
.	16dd	.
*Xped	*	*
8e-J A F	16ee-	.
.	16gJJ	.
=10	=10	=10
*ped	*	*
8BB-L	16b-LL	.
.	16cc	.
8dJ B- F	16dd	.
.	[16fJJ	.
8BBnL	16fLL]	<
.	(16en	.
*Xped	*	*
8dJ G# F	16f	.
.	16gJJ)	[[
=11	=11	=11
*ped	*	*
8CL	(16aLL	<
.	16b-	.
8cJ A F	16bn	.
.	16ccJJ	.
8CL	16ddLL)	[
.	16cc	.
*Xped	*	*
8enJ c B-	16b-	.
.	16ggJJ	.
=12	=12	=12
*^	*	*
*ped	*	*	*
[4f [c [A	8FL	[4ff	f
.	(8BB-q	.	.
.	8CJ)	.	.
*Xped	*	*	*
8f] c] A]	8FF	8ff]	>
8re	8rEE	8dd	]]
*v	*v	*	*
!!LO:LB:g=original
=13	=13	=13
*ped	*	*
8CL	16ee-LL	mf
.	16ff	.
8e-J A F	16gg	.
.	16aJJ	.
8FFL	16ccLL	.
.	16dd	.
*Xped	*	*
8e-J A F	16ee-	.
.	16gJJ	.
=14	=14	=14
*ped	*	*
8BB-L	16b-LL	.
.	16cc	.
8dJ B- F	16dd	.
.	[16fJJ	.
8FFL	16fLL]	.
.	16b-J	.
*Xped	*	*
8dJ B- F	8fJ	.
=15	=15	=15
*ped	*	*
8AAL	(16fLL	.
.	16f#	.
8e-J A F	16g	.
.	16ee-JJ)	.
8FFL	(16gLL	.
.	16g#	.
*Xped	*	*
8e-J c F	16a	.
.	16ee-JJ)	.
=16	=16	=16
*ped	*	*
8BB-L	16ddLL	.
.	16b-	.
8dJ B- F	16dd	.
.	[16ffJJ	.
8DL	4ff]	.
*Xped	*	*
8dJ B- F	.	.
!!LO:LB:g=original
=17	=17	=17
*^	*	*
*ped	*	*	*
4G	8GL	16ddLL	.
.	.	16ee-	.
.	8dJ Bn	16ff	.
.	.	16gJJ	.
4F	8FL	16bnLL	.
.	.	16cc	.
*Xped	*	*	*
.	8dJ B G	16dd	.
.	.	16gJJ	.
=18	=18	=18	=18
*ped	*	*	*
4E-	8E-L	(16ccLL	.
.	.	16bn	.
.	8cJ G	16cc	.
.	.	16ddJJ)	.
*v	*v	*	*
8GL< GG	8ee-L cc	.
*Xped	*	*
8G-J GG-	8eenJ cc# b-	.
=19	=19	=19
*	*^	*
*ped	*	*	*
8FL FF	16ffLL	4dd b-	.
.	16bb-	.	.
8dJ B- F	16ff	.	.
.	16ddJJ	.	.
*	*v	*v	*
8FL FF	16ccLL	.
.	16f	.
*Xped	*	*
8e-J c A F	16a	.
.	16ffJJ	.
=20	=20	=20
*>A1	*>A1	*>A1
*ped	*	*
8BB-L	[4b-	.
8dJ B- F	.	.
8dL D	8b-]	.
*Xped	*	*
8BnJ BBn	8dd	.
=21:|!	=21:|!	=21:|!
*>A2	*>A2	*>A2
*^	*	*
*ped	*	*	*
4d	8B-L	4b-	.
.	8FJ	.	.
*Xped	*	*	*
4ryy	8BB-	8bb- ff dd b-	.
.	8r	8r	.
*v	*v	*	*
!!LO:LB:g=original
=22||	=22||	=22||
*>B	*>B	*>B
*k[b-]	*k[b-]	*k[b-]
*ped	*	*
8FL FF	8aa ff a	f
8fJ c A	4.ccc aa cc	.
8CL	.	.
*Xped	*	*
8fJ c A	.	.
=23	=23	=23
*ped	*	*
8BB-L	8ddd bb- dd	.
8fJ d B-	4fff ddd ff	.
8dL D	.	.
*Xped	*	*
8B-J BB-	16fffLL	.
.	16dddJJ	.
=24	=24	=24
*ped	*	*
8AL AA	8cccL	.
8fJ c A	16aaL	.
.	[16bb-JJ	.
8GL GG	16bb-LL]	.
.	16cccJ	.
*Xped	*	*
8CJ CC	8ggJ ee	.
=25	=25	=25
*ped	*	*
8FL FF	16ffLL	.
.	16ee	.
8fJ A	16ff	.
.	[16aaJJ	.
8CL	4aa]	.
*Xped	*	*
8fJ c A	.	.
=26	=26	=26
*ped	*	*
8FL FF	8aa ff a	.
8fJ c A	4.ccc aa cc	.
8CL	.	.
*Xped	*	*
8fJ c A	.	.
!!LO:LB:g=original
=27	=27	=27
*^	*	*
*ped	*	*	*
4BB-	8BB-L	8ddd bb- dd	.
.	8fJ d B-	4fff ddd ff	.
4D	8DL	.	.
*Xped	*	*	*
.	8dJ A	8fff ddd ff	.
=28	=28	=28	=28
*ped	*	*	*
4E	8EL	8eeeL ee	.
.	8cJ A	16ddd#L dd#	.
.	.	[16eeeJJ [ee	.
4E	8EL	16eee]LL ee]	.
.	.	16fffJ ff	.
*Xped	*	*	*
.	8dJ Bn G#	8eeeJ ee	.
*v	*v	*	*
=29	=29	=29
4c A	4eee ccc aa ee	.
*	*^	*
4C CC	(8dddL	4bb- ee	.
.	8cccJ)	.	.
*	*v	*v	*
=30	=30	=30
*ped	*	*
8FL FF	8aa ff a	.
8fJ c A	4.ccc aa cc	.
8CL	.	.
*Xped	*	*
8fJ c A	.	.
=31	=31	=31
*ped	*	*
8BB-L	8dddL bb- dd	.
8fJ d B-	[8fffJ [<ddd [ff	.
8DL	16fff]LL ddd] ff]	.
.	(16ddd	.
*Xped	*	*
8fJ d B-	16bb-	.
.	16ffJJ)	.
!!LO:LB:g=original
=32	=32	=32
*^	*	*
*ped	*	*	*
4F	8FL	16aaLL	.
.	.	16gg#	.
.	8cJ A	16aa	.
.	.	16cccJJ	.
4F#	8F#L	16dddLL	.
.	.	16eee-	.
*Xped	*	*	*
.	8dJ c A	16ddd	.
.	.	16cccJJ	.
=33	=33	=33	=33
*ped	*	*	*
4.G	8GL	4.bb-	.
.	8d B-	.	.
.	8dJ B-	.	.
*Xped	*	*	*
8r	8r	16ddLL	.
.	.	16eeJJ	.
=34	=34	=34	=34
*ped	*	*	*
4BB-	8BB-L	16ffLL	.
.	.	16gg	.
.	8fJ d B-	16ff	.
.	.	16eeJJ	.
4BBn	8BBnL	8ffL	.
*Xped	*	*	*
.	8fJ d G#	8ddJ	.
=35	=35	=35	=35
*ped	*	*	*
4C	8CL	8cc	.
.	8fJ c A	4aa cc	.
4D	8DL	.	.
*Xped	*	*	*
.	8f#J c A	16bb-LL	.
.	.	16aaJJ	.
*v	*v	*	*
=36	=36	=36
*	*^	*
*ped	*	*	*
8GL GG	(16ffLL	4bn	.
.	16dd	.	.
8fnJ Bn G	16ee	.	.
.	16ffJJ)	.	.
*Xped	*	*	*
*	*v	*v	*
8CL	8ggL b-	.
8eJ c B-	8aaJ ee b-	.
!!LO:LB:g=original
=37	=37	=37
*>B1	*>B1	*>B1
*ped	*	*
8f c A F	8ffL a	.
8r	(16bnL	.
.	16ccJJ	.
4r	16ddLL	.
*Xped	*	*
.	16ee	.
.	16ff	.
.	16ggJJ)	.
=38:|!	=38:|!	=38:|!
*>B2	*>B2	*>B2
*^	*	*
*ped	*	*	*
4.f c A	8FL	4ff a	.
.	8C	.	.
.	8FFJ	8ff a	.
*Xped	*	*	*
*v	*v	*	*
8r	8dd	.
=39||	=39||	=39||
*>C	*>C	*>C
*k[b-e-]	*k[b-e-]	*k[b-e-]
*ped	*	*
8CL	16ee-LL	mf
.	16ff	.
8e-J A F	16gg	.
.	16aJJ	.
8FFL	16ccLL	.
.	16dd	.
*Xped	*	*
8e-J A F	16ee-	.
.	16gJJ	.
=40	=40	=40
*ped	*	*
8BB-L	16b-LL	.
.	16cc	.
8dJ B- F	16dd	.
.	[<16fJJ	.
8FFL	16fLL]	.
.	16b-J	.
*Xped	*	*
8dJ B- F	8fJ	.
=41	=41	=41
*ped	*	*
8AAL	(16fLL	.
.	16f#	.
8e-J A F	16g	.
.	16ee-JJ)	.
8FFL	(16gLL	.
.	16g#	.
*Xped	*	*
8e-J c F	16a	.
.	16ee-JJ)	.
!!LO:LB:g=original
=42	=42	=42
*ped	*	*
8BB-L	16ddLL	.
.	16b-	.
8dJ B- F	16dd	.
.	[16ffJJ	.
8dL D	8ffL]	.
*Xped	*	*
8BnJ BBn	8ddJ	.
=43	=43	=43
*ped	*	*
8cL C	16ee-LL	.
.	16ff	.
8e-J A F	16gg	.
.	16aJJ	.
8FFL	16ccLL	.
.	16dd	.
*Xped	*	*
8e-J A F	16ee-	.
.	16gJJ	.
=44	=44	=44
*ped	*	*
8BB-L	16b-LL	.
.	16cc	.
8dJ B- F	16dd	.
.	[<16fJJ	.
8BBnL	16fLL]	<
.	(16en	.
*Xped	*	*
8dJ G# F	16f	.
.	16gJJ)	[[
=45	=45	=45
*ped	*	*
8CL	(16aLL	<
.	16b-	.
8cJ A F	16bn	.
.	16ccJJ)	[
8CL	16ddLL	.
.	16cc	.
*Xped	*	*
8e-J c B-	16b-	.
.	16ggJJ	.
=46	=46	=46
*^	*	*
*ped	*	*	*
[4f [c [A	8FL	[4ff	f
.	(8BBnq	.	.
.	8CJ)	.	.
8f] c] A]	8FF	8ff]	>
*Xped	*	*	*
8r	8r	8dd	]]
*v	*v	*	*
!!LO:LB:g=original
=47	=47	=47
*ped	*	*
8CL	16ee-LL	mf
.	16ff	.
8e-J A F	16gg	.
.	16aJJ	.
8FFL	16ccLL	.
.	16dd	.
*Xped	*	*
8e-J A F	16ee-	.
.	16gJJ	.
=48	=48	=48
*ped	*	*
8BB-L	16b-LL	.
.	16cc	.
8dJ B- F	16dd	.
.	[16fJJ	.
8FFL	16fLL]	.
.	16b-J	.
*Xped	*	*
8dJ B- F	8fJ	.
=49	=49	=49
*ped	*	*
8AAL	(16fLL	.
.	16f#	.
8e-J A F	16g	.
.	16ee-JJ)	.
8FFL	(16gLL	.
.	16g#	.
*Xped	*	*
8e-J c F	16a	.
.	16ee-JJ)	.
=50	=50	=50
*ped	*	*
8BB-L	16ddLL	.
.	16b-	.
8dJ B- F	16dd	.
.	[16ffJJ	.
8DL	4ff]	.
*Xped	*	*
8dJ B- F	.	.
=51	=51	=51
*^	*	*
*ped	*	*	*
4G	8GL	16ddLL	.
.	.	16ee-	.
.	8dJ Bn	16ff	.
.	.	16gJJ	.
4F	8FL	16bnLL	<
.	.	16cc	.
*Xped	*	*	*
.	8dJ B G	16dd	.
.	.	16gJJ	[[
!!LO:LB:g=original
=52	=52	=52	=52
*ped	*	*	*
4E-	8E-L	(16ccLL	<
.	.	16bn	.
.	8cJ G	16cc	.
.	.	16ddJJ)	.
*v	*v	*	*
8GL< GG	8ee-L cc	.
*Xped	*	*
8G-J GG-	8eenJ cc# b-	[[
=53	=53	=53
*	*^	*
*ped	*	*	*
8FL FF	16ffLL	4dd b-	f
.	16bb-	.	.
8dJ B- F	16ff	.	.
.	16ddJJ	.	.
*	*v	*v	*
8FL FF	16ccLL	.
.	16f	.
*Xped	*	*
8e-J c A F	16a	.
.	16ffJJ	.
=54	=54	=54
*ped	*	*
8dL B-	4b-	.
8FJ	.	.
*Xped	*	*
8BB-	8bb- ff dd b-	.
8r	8r	.
=55!|:	=55!|:	=55!|:
*>D	*>D	*>D
*k[b-e-a-]	*k[b-e-a-]	*k[b-e-a-]
*ped	*	*
(8E-L	(8.b-L g	p
8CJ	.	.
.	16anJk f#)	.
8DL	(8a-L< fn	.
*Xped	*	*
8BB-J)	8ffJ dd a-)	.
=56	=56	=56
*ped	*	*
8E-L	(8.ee-L< g	.
8B-J G	.	.
.	16gJk e-)	.
*	*^	*
8BB-L	(8ccL	4g	.
*Xped	*	*	*
8e-J B- G	8b-J)	.	.
=57	=57	=57	=57
*ped	*	*	*
8DL	16ffLL	4.a-	.
.	16een	.	.
8dJ B-	16ff	.	.
.	16eeJJ	.	.
8BB-L	8ffL	.	.
*Xped	*	*	*
8dJ B-	8aa-J	8cc	.
*	*v	*v	*
!!LO:LB:g=original
=58	=58	=58
*^	*	*
*ped	*	*	*
16r	2E-	2gg b-	.
(16B-LL	.	.	.
16c	.	.	.
16dJJ	.	.	.
16e-LL	.	.	.
16d	.	.	.
16c	.	.	.
*Xped	*	*	*
16B-JJ)	.	.	.
*v	*v	*	*
=59	=59	=59
*ped	*	*
(8E-L	(8.b-L g	.
8CJ	.	.
.	16anJk f#)	.
8DL	(8a-L< fn	.
*Xped	*	*
8BB-J)	8ffJ dd a-)	.
=60	=60	=60
*ped	*	*
8E-L	(8.ee-L< g	.
8B-J G	.	.
.	16gJk e-)	<
8E-L	8ccL g	.
*Xped	*	*
8EnJ	8cc#J g-	.
=61	=61	=61
*	*^	*
*ped	*	*	*
8FL	(16ddLL	4f	.
.	16cc#	.	[[
8dJ B-	16dd	.	<
.	16ffJJ)	.	.
*	*v	*v	*
8GL GG	8b-L en	.
*Xped	*	*
8FJ FF	8ccnJ an e-	[[
=62	=62	=62
*ped	*	*
8B-L BB-	4.b- d	.
(8Enq	.	.
8F)	.	.
8BB-J	.	>
*Xped	*	*
8r	8b-	]]
=63	=63	=63
*ped	*	*
(8E-L	(8.b-L g	p
8CJ	.	.
.	16anJk f#)	.
8DL	(8a-L< fn	.
*Xped	*	*
8BB-J)	8ffJ dd a-)	.
!!LO:LB:g=original
=64	=64	=64
*ped	*	*
8E-L	(8.ee-L< g	.
8B-J G	.	.
.	16gJk e-)	.
*	*^	*
8BB-L	(8ccL	4g	.
*Xped	*	*	*
8e-J B- G	8b-J)	.	.
=65	=65	=65	=65
*ped	*	*	*
8DL	16ffLL	4.a-	.
.	16een	.	.
8dJ	16ff	.	.
.	16eeJJ	.	.
8B-L BB-	8ffL	.	.
*Xped	*	*	*
8A-J AA-	8ff#J	8dd cc	.
*	*v	*v	*
=66	=66	=66
*ped	*	*
8GL< GG	4.gg dd bn	.
(8C#q	.	.
8D)	.	.
8GGJ	.	<
*Xped	*	*
8r	8gg	[[
=67	=67	=67
*	*^	*
*ped	*	*	*
8AA-L	(8.ggL	4cc	<
8cJ A-	.	.	.
.	16ffJk)	.	.
8AAnL	(8dddL	4ff# ee-	.
*Xped	*	*	*
8e-J c F#	8cccJ)	.	[[
=68	=68	=68	=68
*ped	*	*	*
8BB-L	(8cccL	4gg ee-	mf
8e-J B- G	[8bb-J)	.	.
8E-L	16bb-LL]	4rg	.
.	16gg	.	.
*Xped	*	*	*
8e-J G	16ee-	.	.
.	16b-JJ	.	.
*	*v	*v	*
=69	=69	=69
*^	*	*
*ped	*	*	*
4D	8DL	(16ccLL	.
.	.	16cc#	.
.	8B-J A-	16dd	.
.	.	16ffJJ)	.
4BB-	8BB-L	(16ddLL	.
.	.	16ee-	.
*Xped	*	*	*
.	8dJ B- A-	16ff	.
.	.	16bb-JJ)	.
!!LO:LB:g=original
=70	=70	=70	=70
*v	*v	*	*
*>D1	*>D1	*>D1
*^	*	*
*ped	*	*	*
[4e- [B- [G	8E-L	[4ee-	.
.	8BB-J	.	.
8e-] B-] G]	8CL	8ee-]	>
*Xped	*	*	*
8re	8DJ	8b-\ a-\	]]
=71:|!	=71:|!	=71:|!	=71:|!
*v	*v	*	*
*>D2	*>D2	*>D2
*^	*	*
*ped	*	*	*
[4e- [B- G	8E-L	4ee-	.
.	AAnq	.	.
.	8BB-J	.	.
8e-] B-] G	8EE-	8eee- gg ee-	>
*Xped	*	*	*
8re	8rEE	8r	]]
*v	*v	*	*
=72!|:	=72!|:	=72!|:
*>E	*>E	*>E
8CL	16ccLL	mf
.	16ee-	.
8e-J c G	16dd	.
.	[16ee-JJ	.
8CL	16ee-LL]	.
.	16ff#	.
8e-J c G	16gg	.
.	16cccJJ	.
=73	=73	=73
*^	*	*
*ped	*	*	*
8r	2GG	8bbnL	.
8fL Bn G	.	16ggL	.
.	.	16ffJJ	.
8f B G	.	16ee-LK	.
.	.	8dd	.
*Xped	*	*	*
8fJ B G	.	.	.
.	.	16bnJk	.
*v	*v	*	*
=74	=74	=74
8CL	16ccLL	.
.	16ee-	.
8e-J c G	16dd	.
.	[16ee-JJ	.
8CL	16ee-LL]	.
.	16ff#	.
8e-J c G	16gg	.
.	16cccJJ	.
=75	=75	=75
*^	*	*
*ped	*	*	*
8r	2GG	8bbnL	.
8fL Bn G	.	16ggL	.
.	.	16ffJJ	.
8f B G	.	16ee-LK	>
.	.	8dd	.
*Xped	*	*	*
8fJ B G	.	.	.
.	.	16bnJk	]]
!!LO:LB:g=original
=76	=76	=76	=76
*	*	*^	*
*ped	*	*	*	*
4.FF	8FFL	(16ccLL	4.a-	f
.	.	16bn	.	.
.	8fJ d c A-	16cc	.	.
.	.	16bJJ	.	.
.	8fL d c A-	8ccL)	.	.
*Xped	*	*	*	*
8ryy	8F 8FFJ	8a-J f	8d c	.
*v	*v	*	*	*
=77	=77	=77	=77
*ped	*	*	*
4.G\ GG\	8gL	4.f d Bn	.
.	16ggL	.	.
.	16ff#JJ	.	.
.	8ggL	.	.
*Xped	*	*	*
8G\ GG\	8ggJ	8dd bn g	.
=78	=78	=78	=78
*ped	*	*	*
8A-L AA-	(16ccLL	8fL	.
.	16bn	.	.
8dJ c A-	16cc	8fJ	.
.	16bJJ)	.	.
8dL c A-	8ccL	8fL	.
*Xped	*	*	*
8FJ FF	8a-J	8fJ d c	.
*	*v	*v	*
=79	=79	=79
8G\ GG\	8g f d Bn	.
8r	8r	.
8GG^^ GGG	8gg^^ dd bn g	>
8r	8r	]]
=80	=80	=80
8CL	16ccLL	mf
.	16ee-	.
8e-J c G	16dd	.
.	[16ee-JJ	.
8CL	16ee-LL]	.
.	16ff#	.
8e-J c G	16gg	.
.	16cccJJ	.
=81	=81	=81
*^	*	*
*ped	*	*	*
8r	2GG	8bbnL	.
8fL Bn G	.	16ggL	.
.	.	16ffJJ	.
8f B G	.	16ee-LK	.
.	.	8dd	.
*Xped	*	*	*
8fJ B G	.	.	.
.	.	16bnJk	.
*v	*v	*	*
!!LO:LB:g=original
=82	=82	=82
8CL	16ccLL	.
.	16ee-	.
8e-J c G	16dd	.
.	[16ee-JJ	.
8CL	16ee-LL]	.
.	16ff#	.
8e-J c G	16gg	.
.	16cccJJ	.
=83	=83	=83
*^	*	*
*ped	*	*	*
8rc	2GG	8bbnL	.
8fL Bn G	.	16ggL	.
.	.	16ffJJ	.
8f B G	.	16ee-LK	.
.	.	8dd	.
*Xped	*	*	*
8fJ B G	.	.	.
.	.	16bnJk	.
*v	*v	*	*
=84	=84	=84
8CL	16ccLL	.
.	16gg	.
8e-J c G	16ff#	.
.	16ggJJ	.
8CL	16cccLL	.
.	16gg	.
8e-J c G	16ff#	.
.	16ggJJ	.
=85	=85	=85
*^	*	*
*ped	*	*	*
4.FF	8FFL	4.aa-	.
.	8f c A-	.	.
.	8fJ c A-	.	.
*Xped	*	*	*
*v	*v	*	*
8r	8aa-	.
=86	=86	=86
8GGL	16ggLL	.
.	16aa-	.
8fJ Bn G	16gg	.
.	16ffJJ	.
8GGL	16ddLL	.
.	16ff	.
8fJ B G	16ee-	.
.	16ddJJ	.
!!LO:LB:g=original
=87	=87	=87
*>E1	*>E1	*>E1
4e- c	4cc	.
4G\ GG\	4gg dd bn g	.
=88:|!	=88:|!	=88:|!
*>E2	*>E2	*>E2
4e- c	4cc	.
4D	4b- a- f	.
=89||	=89||	=89||
*>F	*>F	*>F
*ped	*	*
(8E-L	(8.b-L g	p
8CJ	.	.
.	16anJk f#)	.
8DL	(8a-L< fn	.
*Xped	*	*
8BB-J)	8ffJ dd a-)	.
=90	=90	=90
*ped	*	*
8E-L	(8.ee-L< g	.
8B-J G	.	.
.	16gJk e-)	.
*	*^	*
8BB-L	(8ccL	4g	.
*Xped	*	*	*
8e-J B- G	8b-J)	.	.
=91	=91	=91	=91
*ped	*	*	*
8DL	16ffLL	4.a-	.
.	16een	.	.
8dJ B-	16ff	.	.
.	16eeJJ	.	.
8BB-L	8ffL	.	.
*Xped	*	*	*
8dJ B-	8aa-J	8cc	.
*	*v	*v	*
=92	=92	=92
*^	*	*
*ped	*	*	*
16r	2E-	2gg b-	.
(16B-LL	.	.	.
16c	.	.	.
16dJJ	.	.	.
16e-LL	.	.	.
16d	.	.	.
16c	.	.	.
*Xped	*	*	*
16B-JJ)	.	.	.
*v	*v	*	*
!!LO:LB:g=original
=93	=93	=93
*ped	*	*
(8E-L	(8.b-L g	.
8CJ	.	.
.	16anJk f#)	.
8DL	(8a-L< fn	.
*Xped	*	*
8BB-J)	8ffJ dd a-)	.
=94	=94	=94
*ped	*	*
8E-L	(8.ee-L< g	.
8B-J G	.	<
.	16gJk e-)	.
8E-L	8ccL g	.
*Xped	*	*
8EnJ	8cc#J g-	[[
=95	=95	=95
*	*^	*
*ped	*	*	*
8FL	(16ddLL	4f	<
.	16cc#	.	.
8dJ B-	16dd	.	.
.	16ffJJ)	.	.
*	*v	*v	*
8GL GG	8b-L en	.
*Xped	*	*
8FJ FF	8ccnJ an e-	[[
=96	=96	=96
*ped	*	*
8B-L BB-	4.b- d	.
(8Enq	.	.
8F)	.	.
8BB-J	.	>
*Xped	*	*
8r	8b-	]]
=97	=97	=97
*ped	*	*
(8E-L	(8.b-L g	p
8CJ	.	.
.	16anJk f#)	.
8DL	(8a-L< fn	.
*Xped	*	*
8BB-J)	8ffJ dd a-)	.
=98	=98	=98
*ped	*	*
8E-L	(8.ee-L< g	.
8B-J G	.	.
.	16gJk e-)	.
*	*^	*
8BB-L	(8ccL	4g	.
*Xped	*	*	*
8e-J B- G	8b-J)	.	.
!!LO:LB:g=original
=99	=99	=99	=99
*ped	*	*	*
8DL	16ffLL	4.a-	.
.	16een	.	.
8dJ B-	16ff	.	.
.	16eeJJ	.	.
8B-L BB-	8ffL	.	.
*Xped	*	*	*
8A-J AA-	8ff#J	8dd cc	.
*	*v	*v	*
=100	=100	=100
*ped	*	*
8GL< GG	4.gg dd bn	.
(8C#q	.	.
8D)	.	.
8GGJ	.	<
*Xped	*	*
8r	8gg	.
=101	=101	=101
*	*^	*
*ped	*	*	*
8AA-L	(8.ggL	4cc	.
8cJ A-	.	.	[
.	16ffJk)	.	<
8AAnL	(8dddL	4ff#	.
*Xped	*	*	*
8e-J c F#	8cccJ)	.	[[
=102	=102	=102	=102
*ped	*	*	*
8BB-L	(8cccL	4gg ee-	mf
8e-J B- G	[8bb-J)	.	.
8E-L	(<16bb-LL]	4r	.
.	16gg	.	.
*Xped	*	*	*
8e-J B- G	16ee-	.	.
.	16b-JJ)	.	.
*	*v	*v	*
=103	=103	=103
*ped	*	*
8DL	(16ccLL	.
.	16cc#	.
8B-J A-	16dd	.
.	16ffJJ)	.
8BB-L	(16ddLL	.
.	16ee-	.
*Xped	*	*
8dJ B- A-	16ff	.
.	16bb-JJ)	.
=104	=104	=104
*^	*	*
*ped	*	*	*
[4e- [B- [G	8E-L	4ee-	.
.	(8AAnq	.	.
.	8BB-J)	.	.
*Xped	*	*	*
8e-]^^ B-] G]	8EE-^^	8eee-^^ gg ee-	.
8r	8r	8r	.
*v	*v	*	*
==	==	==
*-	*-	*-
!!!RDF**kern: > = above
!!!RDF**kern: < = below
!!!URL-vhv: https://verovio.humdrum.org/?file=joplin/chrysanthemum.krn
!!!URL-pdf-original: https://github.com/craigsapp/joplin/blob/master/reference-edition/chrysanthemum.pdf
!!!PPR: John Stark & Son
!!!PPP: St. Louis, Missouri
!!!PDT: 1904
!!!ENC: Craig Stuart Sapp
!!!END: 2004/07/06
!!!EED: Craig Stuart Sapp
!!!EEV: 2021/06/26
!!!YEC: Copyright 2004 by Craig Stuart Sapp
!!!YEN: United States of America
